src/images/icon/facebook.svg

<svg width="33" height="32" viewBox="0 0 33 32" fill="none" xmlns="http://www.w3.org/2000/svg">
<g clip-path="url(#clip0_57354_393)">
<path d="M16.4706 32C25.3071 32 32.4706 24.8366 32.4706 16C32.4706 7.16344 25.3071 0 16.4706 0C7.63403 0 0.470589 7.16344 0.470589 16C0.470589 24.8366 7.63403 32 16.4706 32Z" fill="#FEA5BB"/>
<path d="M20.9162 15.9814H18.3061V25.5999H14.3514V15.9814H12.4706V12.6011H14.3514V10.4136C14.3514 8.84938 15.0901 6.3999 18.3413 6.3999L21.2706 6.41223V9.69341H19.1452C18.7965 9.69341 18.3063 9.86861 18.3063 10.6148V12.6042H21.2617L20.9162 15.9814Z" fill="white"/>
</g>
<defs>
<clipPath id="clip0_57354_393">
<rect width="32" height="32" fill="white" transform="translate(0.470589)"/>
</clipPath>
</defs>
</svg>

<svg xmlns="http://www.w3.org/2000/svg" width="33" height="32" fill="none"><g clip-path="url(#a)"><path fill="#FEA5BB" d="M16.47 32c8.837 0 16-7.163 16-16s-7.163-16-16-16c-8.836 0-16 7.163-16 16s7.164 16 16 16Z"/><path fill="#fff" d="M20.916 15.981h-2.61V25.6h-3.955V15.98h-1.88v-3.38h1.88v-2.187c0-1.565.74-4.014 3.99-4.014l2.93.012v3.281h-2.126c-.348 0-.839.176-.839.922v1.99h2.956l-.346 3.376Z"/></g><defs><clipPath id="a"><path fill="#fff" d="M.47 0h32v32h-32z"/></clipPath></defs></svg>
